X:43
T:Sligo Maid, The
M:C|
Z:Boston
E:7
R:reel
K:AMix
A2 BA (3Bcd ef|gedB AGEF|~G2 BG dGBG|DEGA BAdB|A2 BA (3Bcd ef|gedB AGEG|B3G A2GE|DEGA BA ~A2:|
eaag a2ga|bgab gfed|eggf ~g3e|dega bgag|eaag a2ga|bgab gfed|eg~g2 edBc|dBgB BA ~A2:|
<end>
<start>
